X:121
T:Cold Frosty Morning -- Main
M:4/4
L:1/8
K:A dor
||:"Am"A'CEG A2AA|ABcd e4|"G"B2d2 G2GA|BABc d4
| "Am"A'CEG A2AA | ABcd e2ed | cBAc BAG2 | A2AB A2 A2 :||
"Am"ega2 a2aa | abag e2ed | "G"edef g2ag | edB2 d2dd
|"Am"A2AA "C"c2cc | "D"dcd2 "E"e2ed | "Am"cBAc "G"BAGB | "Am"A2AB A2 A2
:||
%  ABC2Win Version 2.1 4/2/2004
